assets/misc-grey/MiscGrey47.svg

<svg width="35" height="40" viewBox="0 0 35 40" fill="none" xmlns="http://www.w3.org/2000/svg">
<path fill-rule="evenodd" clip-rule="evenodd" d="M30.71 36.83H23.58V27.33C23.58 25.4 21.88 23.83 19.79 23.83H14.63C12.54 23.83 10.83 25.4 10.83 27.33V36.83H4.04004C3.77004 36.83 3.54004 36.6 3.54004 36.33V17.07L17.31 3.63999L31.05 16.55L31.21 36.33C31.21 36.6 30.98 36.83 30.71 36.83ZM34.04 15.88C34.04 15.88 34.04 15.87 34.04 15.86C34.04 15.85 34.04 15.84 34.04 15.82C34.03 15.64 33.99 15.46 33.92 15.29L33.91 15.28C33.83 15.1 33.72 14.94 33.58 14.81C33.58 14.81 33.57 14.81 33.57 14.8L18.32 0.469986C17.74 -0.0800143 16.82 -0.0700143 16.25 0.489986L1.00004 15.36C0.990039 15.37 0.990039 15.37 0.990039 15.37C0.850039 15.51 0.740039 15.67 0.660039 15.85C0.660039 15.86 0.660039 15.86 0.660039 15.86C0.590039 16.03 0.550039 16.21 0.550039 16.4C0.550039 16.41 0.540039 16.42 0.540039 16.43C0.540039 16.43 0.540039 16.43 0.540039 16.44V36.33C0.540039 38.26 2.11004 39.83 4.04004 39.83H12.33C13.16 39.83 13.83 39.16 13.83 38.33C13.83 38.28 13.82 38.22 13.82 38.17C13.82 38.11 13.83 38.06 13.83 38V27.33C13.83 27.13 14.14 26.83 14.63 26.83H19.79C20.28 26.83 20.58 27.13 20.58 27.33V38C20.58 38.06 20.6 38.11 20.6 38.17C20.6 38.22 20.58 38.28 20.58 38.33C20.58 39.16 21.26 39.83 22.08 39.83H30.71C32.64 39.83 34.21 38.26 34.21 36.32L34.04 15.88Z" fill="#1A1919"/>
</svg>

<svg xmlns="http://www.w3.org/2000/svg" viewBox="0 0 35 40"><path fill-rule="evenodd" d="M30.71 36.83h-7.13v-9.5c0-1.93-1.7-3.5-3.79-3.5h-5.16c-2.09 0-3.8 1.57-3.8 3.5v9.5H4.04c-.27 0-.5-.23-.5-.5V17.07L17.31 3.64l13.74 12.91.16 19.78c0 .27-.23.5-.5.5zm3.33-20.95v-.02-.04c-.01-.18-.05-.36-.12-.53l-.01-.01c-.08-.18-.19-.34-.33-.47 0 0-.01 0-.01-.01L18.32.47c-.58-.55-1.5-.54-2.07.02L1 15.36l-.01.01c-.14.14-.25.3-.33.48v.01c-.07.17-.11.35-.11.54 0 .01-.01.02-.01.03V36.33c0 1.93 1.57 3.5 3.5 3.5h8.29c.83 0 1.5-.67 1.5-1.5 0-.05-.01-.11-.01-.16 0-.06.01-.11.01-.17V27.33c0-.2.31-.5.8-.5h5.16c.49 0 .79.3.79.5V38c0 .06.02.11.02.17 0 .05-.02.11-.02.16 0 .83.68 1.5 1.5 1.5h8.63c1.93 0 3.5-1.57 3.5-3.51l-.17-20.44z" clip-rule="evenodd"/></svg>
